X:252
%%etbk:tnset id:76,pos:2,rep:3x,ant:
%%etbk:wsite http://www.thesession.org/tunes/display/861
%%etbk:skill ?
%%etbk:pldat 2013-11-25T19:53,2013-10-07T19:02,2013-05-21T15:34,2013-05-15T17:44
T: One That Was Lost, The
Z: Piano Box Version by Martin Fleischmann
H: Created 2013-02-19 /  Last Modified 2013-02-19
M: 6/8
L: 1/8
R: jig
K:Ddor
|: "dm" !5!dc!2!A !1!G!2!E!5!A | !1!D!2!D!1!D !1!DE!4!G | "C"!5!AG!2!E !1!C2!1!D | !2!E!4!G!1!G !3!cd!5!e |
"dm"!5!dc!2!A !1!G!2!E!5!A | !1!D2D !2!E!4!G!1!G | "C"!2!c!3!e!5!a !4!g!2!e!1!c |  "dm"!1!de!1!d !3!d3 :|
|: "dm"!1!A!3!d!1!d !1!de!4!g | !5!age !1!d!3!c!1!A | "C"!3!ccc !1!A!3!cc | !1!G!3!c!5!e !1!AB!3!c |
"dm"!4!d2!1!d !1!deg | !5!age !1!d!3!c!1!A | "C"!2!c!3!e!5!a !4!g!2!e!1!c | "dm"!1!de!1!d !3!d3 :|
